packages/icons/raw/imported/DevicesSmartphone.svg

<svg width="32" height="32" viewBox="0 0 32 32" fill="none" xmlns="http://www.w3.org/2000/svg">
<path d="M19.1765 23.0769C19.4526 23.0769 19.6765 22.853 19.6765 22.5769C19.6765 22.3008 19.4526 22.0769 19.1765 22.0769V23.0769ZM12.8235 22.0769C12.5474 22.0769 12.3235 22.3008 12.3235 22.5769C12.3235 22.853 12.5474 23.0769 12.8235 23.0769V22.0769ZM20 6.5V7V6.5ZM12 6.5V6V6.5ZM10 23.5H10.5H10ZM10 8.5H9.5H10ZM20 25.5V25V25.5ZM12 25.5V26V25.5ZM22 23.5H22.5H22ZM22 8.5L21.5 8.5V8.5L22 8.5ZM20 6L12 6V7L20 7V6ZM10.5 23.5L10.5 8.5H9.5L9.5 23.5H10.5ZM20 25H12V26H20V25ZM22.5 23.5L22.5 8.5L21.5 8.5L21.5 23.5H22.5ZM20 26C21.3807 26 22.5 24.8807 22.5 23.5H21.5C21.5 24.3284 20.8284 25 20 25V26ZM20 7C20.8284 7 21.5 7.67157 21.5 8.5L22.5 8.5C22.5 7.11929 21.3807 6 20 6V7ZM12 6C10.6193 6 9.5 7.11929 9.5 8.5H10.5C10.5 7.67157 11.1716 7 12 7V6ZM9.5 23.5C9.5 24.8807 10.6193 26 12 26V25C11.1716 25 10.5 24.3284 10.5 23.5H9.5ZM12.8235 23.0769H19.1765V22.0769H12.8235V23.0769Z" fill="black"/>
</svg>

<svg width="32" height="32" fill="none" xmlns="http://www.w3.org/2000/svg"><path d="M19.177 23.077a.5.5 0 0 0 0-1v1Zm-6.354-1a.5.5 0 0 0 0 1v-1ZM20 6.5V7v-.5Zm-8 0V6v.5Zm-2 17h.5-.5Zm0-15h-.5.5Zm10 17V25v.5Zm-8 0v.5-.5Zm10-2h.5-.5Zm0-15h-.5.5ZM20 6h-8v1h8V6Zm-9.5 17.5v-15h-1v15h1ZM20 25h-8v1h8v-1Zm2.5-1.5v-15h-1v15h1ZM20 26a2.5 2.5 0 0 0 2.5-2.5h-1A1.5 1.5 0 0 1 20 25v1Zm0-19a1.5 1.5 0 0 1 1.5 1.5h1A2.5 2.5 0 0 0 20 6v1Zm-8-1a2.5 2.5 0 0 0-2.5 2.5h1A1.5 1.5 0 0 1 12 7V6ZM9.5 23.5A2.5 2.5 0 0 0 12 26v-1a1.5 1.5 0 0 1-1.5-1.5h-1Zm3.323-.423h6.354v-1h-6.354v1Z" fill="#000"/></svg>
